web/packages/design/src/ResourceIcon/assets/googletagmanager.svg

<svg width="72" height="72" viewBox="0 0 72 72" fill="none" xmlns="http://www.w3.org/2000/svg">
<g clip-path="url(#clip0_15942_7531)">
<path d="M42.2617 69.0509L29.7637 56.8643L56.6047 29.4556L69.5445 42.1372L42.2617 69.0509Z" fill="#8AB4F8"/>
<path d="M42.3152 15.1704L29.8622 2.45605L2.63255 29.427C-0.877518 32.937 -0.877518 38.6273 2.63255 42.1414L29.4531 69.1369L42.1352 57.2734L21.7007 35.7842L42.3152 15.1704Z" fill="#4285F4"/>
<path d="M69.3642 29.6356L42.3637 2.63602C38.8495 -0.878021 33.1508 -0.878021 29.6366 2.63602C26.1224 6.15006 26.1224 11.8486 29.6366 15.3626L56.6371 42.3622C60.1513 45.8763 65.85 45.8763 69.3642 42.3622C72.8784 38.8482 72.8784 33.1497 69.3642 29.6356Z" fill="#8AB4F8"/>
<path d="M35.7937 72.0008C40.6514 72.0008 44.5893 68.063 44.5893 63.2055C44.5893 58.348 40.6514 54.4102 35.7937 54.4102C30.936 54.4102 26.998 58.348 26.998 63.2055C26.998 68.063 30.936 72.0008 35.7937 72.0008Z" fill="#246FDB"/>
</g>
<defs>
<clipPath id="clip0_15942_7531">
<rect width="72" height="72" fill="white" transform="translate(0 0.000488281)"/>
</clipPath>
</defs>
</svg>

<svg xmlns="http://www.w3.org/2000/svg" width="72" height="72" fill="none" viewBox="0 0 72 72"><g clip-path="url(#a)"><path fill="#8ab4f8" d="M42.262 69.05 29.764 56.865l26.84-27.408 12.94 12.681z"/><path fill="#4285f4" d="M42.315 15.17 29.862 2.456 2.632 29.427c-3.51 3.51-3.51 9.2 0 12.714l26.821 26.996 12.682-11.864-20.434-21.489z"/><path fill="#8ab4f8" d="m69.364 29.636-27-27a9 9 0 0 0-12.727 12.727l27 27a9 9 0 0 0 12.727-12.727"/><path fill="#246fdb" d="M35.794 72a8.795 8.795 0 1 0 0-17.59 8.796 8.796 0 1 0 0 17.59"/></g><defs><clipPath id="a"><path fill="#fff" d="M0 0h72v72H0z"/></clipPath></defs></svg>
